X: 1826
T: The New School
M:6/8
L:1/8
B:O'Neill's 1826
N:"collected by J. O'Neill"
Z:"Transcribed by Bob Safranek, rjs@gsp.org"
Z:Probably should be a repeat at start of B part
K:G
B2 B B>AB | d2 B B>AB | c2 e g2 e |  d2 B B>AB  |
c2 A A>GA | B2 G G>FG | E2 e d2 c |  B2 G G2 z :|
d2 c Bcd  | e2 f g2 a | b2 a gfe  |  d2 B Bcd   |
e2 e ecA  | d2 d dBG  | c2 A B2 G |1 F2 A D2 z :|2 F2 G Ad"   D.C."c |]


